TH2/userz.svg

<svg xmlns="http://www.w3.org/2000/svg" viewBox="0 0 1200 800" preserveAspectRatio="none" width="1200" height="800">
 <path d="M0,0H1200V800H0Z" style="fill: white;"></path>
 <g>
  <g transform="translate(120,80)">
   <path d="M0,0H960V640H0Z" style="fill: white; stroke: black; stroke-width: 1;"></path>
   <svg x="0" y="0" overflow="hidden" width="960" height="640" viewBox="0 0 960 640">
    <g>
     <path fill="#2eb7a4" d="M240,160h240v160h-240zM480,320h240v160h-240z"></path>
     <path fill="#52ba92" d="M0,320h240v160h-240zM240,0h240v160h-240zm0,480h240v160h-240zM720,320h240v160h-240z"></path>
     <path fill="#fdd22b" d="M0,160h240v160h-240zM480,480h240v160h-240z"></path>
     <path fill="#fbe61d" d="M480,0h240v160h-240zM720,160h240v160h-240z"></path>
     <path fill="#f9f90f" d="M0,0h240v160h-240zM0,480h240v160h-240zM240,320h240v160h-240zM480,160h240v160h-240zM720,0h240v160h-240zm0,480h240v160h-240z"></path>
    </g>
   </svg>
   <g>
    <g transform="translate(0,640)">
     <path d="M0,0h960M0,-24v24m240,-24v24m240,-24v24m240,-24v24m240,-12v12" style="stroke: black; stroke-width: 1;"></path>
     <g font-family="Arial" font-size="31" space="preserve" fill="black" text-anchor="middle">
      <text dy=".8em" transform="translate(120,11)">
       myvar1
      </text>
      <text dy=".8em" transform="translate(360,11)">
       Expression 2
      </text>
      <text dy=".8em" transform="translate(600,11)">
       Variable 3
      </text>
      <text dy=".8em" transform="translate(840,11)">
       Variable 4
      </text>
     </g>
    </g>
    <g>
     <path d="M0,0v640M36,640h-36m36,-160h-36m36,-160h-36m36,-160h-36m18,-160h-18" style="stroke: black; stroke-width: 1;"></path>
     <g font-family="Arial" font-size="16" space="preserve" fill="black" text-anchor="end">
      <text dy=".4em" transform="translate(-4,560)">
       myvar1
      </text>
      <text dy=".4em" transform="translate(-4,400)">
       Expression 2
      </text>
      <text dy=".4em" transform="translate(-4,240)">
       Variable 3
      </text>
      <text dy=".4em" transform="translate(-4,80)">
       Variable 4
      </text>
     </g>
    </g>
   </g>
  </g>
  <g transform="translate(1086,80)">
   <path d="M0,0H48V640H0Z" style="fill: none; stroke: black; stroke-width: 1;"></path>
   <path d="M0,608H48V640H0Z" style="fill: #1652cd;"></path>
   <path d="M0,576H48V609H0Z" style="fill: #1652cd;"></path>
   <path d="M0,544H48V577H0Z" style="fill: #1064dc;"></path>
   <path d="M0,512H48V545H0Z" style="fill: #1272d9;"></path>
   <path d="M0,480H48V513H0Z" style="fill: #1481d6;"></path>
   <path d="M0,448H48V481H0Z" style="fill: #0e8fd1;"></path>
   <path d="M0,416H48V449H0Z" style="fill: #099dcc;"></path>
   <path d="M0,384H48V417H0Z" style="fill: #0da7c3;"></path>
   <path d="M0,352H48V385H0Z" style="fill: #1eafb3;"></path>
   <path d="M0,320H48V353H0Z" style="fill: #2eb7a4;"></path>
   <path d="M0,288H48V321H0Z" style="fill: #52ba92;"></path>
   <path d="M0,256H48V289H0Z" style="fill: #74bd81;"></path>
   <path d="M0,224H48V257H0Z" style="fill: #95be71;"></path>
   <path d="M0,192H48V225H0Z" style="fill: #b3bd65;"></path>
   <path d="M0,160H48V193H0Z" style="fill: #d1bb59;"></path>
   <path d="M0,128H48V161H0Z" style="fill: #e2c04b;"></path>
   <path d="M0,96H48V129H0Z" style="fill: #f4c63b;"></path>
   <path d="M0,64H48V97H0Z" style="fill: #fdd22b;"></path>
   <path d="M0,32H48V65H0Z" style="fill: #fbe61d;"></path>
   <path d="M0,0H48V33H0Z" style="fill: #f9f90f;"></path>
   <g transform="translate(48)">
    <path d="M0,0v640M0,640h-33m33,-64h-33m33,-64h-33m33,-64h-33m33,-64h-33m33,-64h-33m33,-64h-33m33,-64h-33m33,-64h-33m33,-64h-33m33,-64h-33" style="stroke: black; stroke-width: 1;"></path>
    <g font-family="Arial" font-size="28" space="preserve" fill="black" text-anchor="start">
     <text dy=".4em" transform="translate(4,640)">
      -100
     </text>
     <text dy=".4em" transform="translate(4,576)">
      -80
     </text>
     <text dy=".4em" transform="translate(4,512)">
      -60
     </text>
     <text dy=".4em" transform="translate(4,448)">
      -40
     </text>
     <text dy=".4em" transform="translate(4,384)">
      -20
     </text>
     <text dy=".4em" transform="translate(4,320)">
      0
     </text>
     <text dy=".4em" transform="translate(4,256)">
      20
     </text>
     <text dy=".4em" transform="translate(4,192)">
      40
     </text>
     <text dy=".4em" transform="translate(4,128)">
      60
     </text>
     <text dy=".4em" transform="translate(4,64)">
      80
     </text>
     <text dy=".4em" transform="translate(4)">
      100
     </text>
    </g>
   </g>
  </g>
  <g transform="translate(120,4)" font-family="Arial" font-size="40" space="preserve">
   <text fill="black" text-anchor="middle" dy=".8em" transform="translate(480)">
    Correlation Matrix (Signal)
   </text>
  </g>
 </g>
</svg>

<svg xmlns="http://www.w3.org/2000/svg" viewBox="0 0 1200 800" preserveAspectRatio="none" width="1200" height="800">
 <path d="M0,0H1200V800H0Z" style="fill: white;"></path>
 <g>
  <g transform="translate(120,80)">
   <path d="M0,0H960V640H0Z" style="fill: white; stroke: black; stroke-width: 1;"></path>
   <svg x="0" y="0" overflow="hidden" width="960" height="640" viewBox="0 0 960 640">
    <g>
     <path fill="#2eb7a4" d="M240,160h240v160h-240zM480,320h240v160h-240z"></path>
     <path fill="#52ba92" d="M0,320h240v160h-240zM240,0h240v160h-240zm0,480h240v160h-240zM720,320h240v160h-240z"></path>
     <path fill="#fdd22b" d="M0,160h240v160h-240zM480,480h240v160h-240z"></path>
     <path fill="#fbe61d" d="M480,0h240v160h-240zM720,160h240v160h-240z"></path>
     <path fill="#f9f90f" d="M0,0h240v160h-240zM0,480h240v160h-240zM240,320h240v160h-240zM480,160h240v160h-240zM720,0h240v160h-240zm0,480h240v160h-240z"></path>
    </g>
   </svg>
   <g>
    <g transform="translate(0,640)">
     <path d="M0,0h960M0,-24V0M240,-24V0M480,-24V0M720,-24V0M960,-12V0" style="stroke: black; stroke-width: 1;"></path>
     <g font-family="Arial" font-size="31" space="preserve" fill="black" text-anchor="middle">
      <text dy=".8em" transform="translate(120,11)">
       myvar1
      </text>
      <text dy=".8em" transform="translate(360,11)">
       Expression 2
      </text>
      <text dy=".8em" transform="translate(600,11)">
       Variable 3
      </text>
      <text dy=".8em" transform="translate(840,11)">
       Variable 4
      </text>
     </g>
    </g>
    <g>
     <path d="M0,0v640M36,640H0M36,480H0M36,320H0M36,160H0M18,0H0" style="stroke: black; stroke-width: 1;"></path>
     <g font-family="Arial" font-size="16" space="preserve" fill="black" text-anchor="end">
      <text dy=".4em" transform="translate(-4,560)">
       myvar1
      </text>
      <text dy=".4em" transform="translate(-4,400)">
       Expression 2
      </text>
      <text dy=".4em" transform="translate(-4,240)">
       Variable 3
      </text>
      <text dy=".4em" transform="translate(-4,80)">
       Variable 4
      </text>
     </g>
    </g>
   </g>
  </g>
  <g transform="translate(1086,80)">
   <path d="M0,0H48V640H0Z" style="fill: none; stroke: black; stroke-width: 1;"></path>
   <path d="M0,608H48V640H0Z" style="fill: #1652cd;"></path>
   <path d="M0,576H48V609H0Z" style="fill: #1652cd;"></path>
   <path d="M0,544H48V577H0Z" style="fill: #1064dc;"></path>
   <path d="M0,512H48V545H0Z" style="fill: #1272d9;"></path>
   <path d="M0,480H48V513H0Z" style="fill: #1481d6;"></path>
   <path d="M0,448H48V481H0Z" style="fill: #0e8fd1;"></path>
   <path d="M0,416H48V449H0Z" style="fill: #099dcc;"></path>
   <path d="M0,384H48V417H0Z" style="fill: #0da7c3;"></path>
   <path d="M0,352H48V385H0Z" style="fill: #1eafb3;"></path>
   <path d="M0,320H48V353H0Z" style="fill: #2eb7a4;"></path>
   <path d="M0,288H48V321H0Z" style="fill: #52ba92;"></path>
   <path d="M0,256H48V289H0Z" style="fill: #74bd81;"></path>
   <path d="M0,224H48V257H0Z" style="fill: #95be71;"></path>
   <path d="M0,192H48V225H0Z" style="fill: #b3bd65;"></path>
   <path d="M0,160H48V193H0Z" style="fill: #d1bb59;"></path>
   <path d="M0,128H48V161H0Z" style="fill: #e2c04b;"></path>
   <path d="M0,96H48V129H0Z" style="fill: #f4c63b;"></path>
   <path d="M0,64H48V97H0Z" style="fill: #fdd22b;"></path>
   <path d="M0,32H48V65H0Z" style="fill: #fbe61d;"></path>
   <path d="M0,0H48V33H0Z" style="fill: #f9f90f;"></path>
   <g transform="translate(48)">
    <path d="M0,0v640M0,640H-33M0,576H-33M0,512H-33M0,448H-33M0,384H-33M0,320H-33M0,256H-33M0,192H-33M0,128H-33M0,64H-33M0,0H-33" style="stroke: black; stroke-width: 1;"></path>
    <g font-family="Arial" font-size="28" space="preserve" fill="black" text-anchor="start">
     <text dy=".4em" transform="translate(4,640)">
      -100
     </text>
     <text dy=".4em" transform="translate(4,576)">
      -80
     </text>
     <text dy=".4em" transform="translate(4,512)">
      -60
     </text>
     <text dy=".4em" transform="translate(4,448)">
      -40
     </text>
     <text dy=".4em" transform="translate(4,384)">
      -20
     </text>
     <text dy=".4em" transform="translate(4,320)">
      0
     </text>
     <text dy=".4em" transform="translate(4,256)">
      20
     </text>
     <text dy=".4em" transform="translate(4,192)">
      40
     </text>
     <text dy=".4em" transform="translate(4,128)">
      60
     </text>
     <text dy=".4em" transform="translate(4,64)">
      80
     </text>
     <text dy=".4em" transform="translate(4)">
      100
     </text>
    </g>
   </g>
  </g>
  <g transform="translate(120,4)" font-family="Arial" font-size="40" space="preserve">
   <text fill="black" text-anchor="middle" dy=".8em" transform="translate(480)">
    Correlation Matrix (Signal)
   </text>
  </g>
 </g>
</svg>
